nodes/AwsS3PresignedUrl/aws-s3.svg

<?xml version="1.0" encoding="UTF-8"?>
<svg id="Layer_1" data-name="Layer 1" xmlns="http://www.w3.org/2000/svg" version="1.1" viewBox="0 0 80 80">
  <defs>
    <style>
      .cls-1 {
        fill: #700;
      }

      .cls-1, .cls-2, .cls-3, .cls-4, .cls-5 {
        stroke-width: 0px;
      }

      .cls-2 {
        opacity: .9;
      }

      .cls-2, .cls-3, .cls-4, .cls-5 {
        fill: #fff;
        isolation: isolate;
      }

      .cls-3 {
        opacity: .6;
      }

      .cls-4 {
        opacity: .8;
      }

      .cls-5 {
        opacity: .7;
      }
    </style>
  </defs>
  <rect class="cls-1" width="80" height="80" rx="8" ry="8"/>
  <path class="cls-2" d="M20,25l20-10,20,10v10l-20,10-20-10v-10Z"/>
  <path class="cls-5" d="M20,35l20,10v10l-20-10v-10Z"/>
  <path class="cls-4" d="M60,35l-20,10v10l20-10v-10Z"/>
  <path class="cls-3" d="M20,45l20,10,20-10v10l-20,10-20-10v-10Z"/>
</svg>

<svg xmlns="http://www.w3.org/2000/svg" viewBox="0 0 80 80" width="80" height="80">
  <defs>
    <linearGradient id="grad1" x1="0%" y1="0%" x2="0%" y2="100%">
      <stop offset="0%" style="stop-color:#C8511B;stop-opacity:1" />
      <stop offset="100%" style="stop-color:#F90;stop-opacity:1" />
    </linearGradient>
  </defs>
  <rect width="80" height="80" fill="url(#grad1)" rx="8"/>
  <path fill="#fff" d="M20,25 L40,15 L60,25 L60,35 L40,45 L20,35 Z" opacity="0.9"/>
  <path fill="#fff" d="M20,35 L40,45 L40,55 L20,45 Z" opacity="0.7"/>
  <path fill="#fff" d="M60,35 L40,45 L40,55 L60,45 Z" opacity="0.8"/>
  <path fill="#fff" d="M20,45 L40,55 L60,45 L60,55 L40,65 L20,55 Z" opacity="0.6"/>
  <text x="40" y="73" font-family="Arial, sans-serif" font-size="10" font-weight="bold" fill="#fff" text-anchor="middle">S3</text>
</svg>
